X:116
T:Trip to Dublin THO4.116, The
M:6/8
L:1/8
Z:vmp. Peter Dunk 2010/11.from a transcription by Fynn Titford-Mock 2007
B:Thompson's Compleat Collection of 200 Favourite Country Dances Volume IV.
Q:3/8=100
K:D
DFA dfa|gec d2 A| BGB AFA|AGF {F}[E3A,3]|\
DFA dfa|gec d2 A| BGB AFA|AGF D3:|
|:EFG FED|F2 G A2 A|EFG FED|[c2C2][BB,][A2A,2][AA,]|\
EFG FED|F2 G A2 A|Bcd Agf|edc d3:|
